Adwaita++/apps/scalable/ubiquity.svg

<svg height="128" width="128" xmlns="http://www.w3.org/2000/svg">
  <path d="m62.949153 6.0338983c-31.549831 0-56.949153 25.3993217-56.949153 56.9491527 0 31.54983 25.399322 56.949149 56.949153 56.949149 31.54983 0 56.949157-25.399319 56.949157-56.949149 0-31.549831-25.399327-56.9491527-56.949157-56.9491527zm0 32.5423727a24.40678 24.40678 0 0 1 24.406779 24.40678 24.40678 24.40678 0 0 1 -24.406779 24.40678 24.40678 24.40678 0 0 1 -24.40678-24.40678 24.40678 24.40678 0 0 1 24.40678-24.40678z" opacity=".2"/>
  <path d="m62.949153 4c-31.549831 0-56.949153 25.399322-56.949153 56.949153 0 31.54983 25.399322 56.949157 56.949153 56.949157 31.54983 0 56.949157-25.399327 56.949157-56.949157 0-31.549831-25.399327-56.949153-56.949157-56.949153zm0 32.542373a24.40678 24.40678 0 0 1 24.406779 24.40678 24.40678 24.40678 0 0 1 -24.406779 24.406779 24.40678 24.40678 0 0 1 -24.40678-24.406779 24.40678 24.40678 0 0 1 24.40678-24.40678z" fill="#e4e4e4"/>
  <g transform="translate(.415714)">
    <circle cx="62.533" cy="60.949" fill="#1c71d8" r="32.542"/>
    <path d="m62.463473 77.220343-12.133424-16.271191h8.135593v-16.271187h8.135594v16.271187h8.135594z" fill="#fff"/>
    <path d="m30.042711 60.23469a32.542373 32.546225 0 0 0 -.051642 1.013105 32.542373 32.546225 0 0 0 32.542372 32.546217 32.542373 32.546225 0 0 0 32.542375-32.546217 32.542373 32.546225 0 0 0 -.03575-1.001186 32.542373 32.546225 0 0 1 -32.506625 31.513263 32.542373 32.546225 0 0 1 -32.49073-31.525182z" opacity=".2"/>
  </g>
</svg>

<svg xmlns="http://www.w3.org/2000/svg" width="128" height="128" version="1.1">
 <path style="opacity:0.2" d="M 62.949153,6.0338983 C 31.399322,6.0338983 6,31.43322 6,62.983051 6,94.532881 31.399322,119.9322 62.949153,119.9322 c 31.54983,0 56.949157,-25.399319 56.949157,-56.949149 0,-31.549831 -25.399327,-56.9491527 -56.949157,-56.9491527 z m 0,32.5423727 a 24.40678,24.40678 0 0 1 24.406779,24.40678 24.40678,24.40678 0 0 1 -24.406779,24.40678 24.40678,24.40678 0 0 1 -24.40678,-24.40678 24.40678,24.40678 0 0 1 24.40678,-24.40678 z"/>
 <path style="fill:#e4e4e4" d="M 62.949153,4 C 31.399322,4 6,29.399322 6,60.949153 c 0,31.54983 25.399322,56.949157 56.949153,56.949157 31.54983,0 56.949157,-25.399327 56.949157,-56.949157 C 119.89831,29.399322 94.498983,4 62.949153,4 Z m 0,32.542373 a 24.40678,24.40678 0 0 1 24.406779,24.40678 24.40678,24.40678 0 0 1 -24.406779,24.406779 24.40678,24.40678 0 0 1 -24.40678,-24.406779 24.40678,24.40678 0 0 1 24.40678,-24.40678 z"/>
 <g transform="translate(0.41571401)">
  <circle cx="62.533" cy="60.949" r="32.542" style="fill:#1c71d8"/>
  <path d="M 62.463473,77.220343 50.330049,60.949152 h 8.135593 V 44.677965 h 8.135594 v 16.271187 h 8.135594 z" style="fill:#ffffff"/>
  <path d="M 30.042711,60.23469 A 32.542373,32.546225 0 0 0 29.991069,61.247795 32.542373,32.546225 0 0 0 62.533441,93.794012 32.542373,32.546225 0 0 0 95.075816,61.247795 32.542373,32.546225 0 0 0 95.040066,60.246609 32.542373,32.546225 0 0 1 62.533441,91.759872 32.542373,32.546225 0 0 1 30.042711,60.23469 Z" style="opacity:0.2"/>
 </g>
</svg>
